X:274
T: Jenny Dang the Weaver
N: O'Farrell's Pocket Companion v.3 (Sky ed. p.125)
N: "Scotch"
% Dang = to strike, hit, surpass, get the better of
M: C
L: 1/8
R: reel
Q: 320
K: D
f| d>AAB AFAB| dAA<A f2ef| dBB<B BABd| ABde fge>f|
d>efd e>fge| d>efd e2 dB| d>efd e>fge| aAA<A f2 ef|
d>efd e>fge| d>efd e2 dB| d>efd e>fge| f/g/a Ag fgef||
